icons/bell-slash-16.svg

<svg xmlns="http://www.w3.org/2000/svg" width="16" height="16" viewBox="0 0 16 16"><path d="M4.182 4.31l.016.011 10.104 7.316.013.01 1.375.996a.75.75 0 11-.88 1.214L13.626 13H2.518a1.516 1.516 0 01-1.263-2.36l1.703-2.554A.255.255 0 003 7.947V5.305L.31 3.357a.75.75 0 11.88-1.214zm7.373 7.19L4.5 6.391v1.556c0 .346-.102.683-.294.97l-1.703 2.556a.017.017 0 00-.003.01c0 .005.002.009.005.012l.006.004.007.001zM8 1.5c-.997 0-1.895.416-2.534 1.086A.75.75 0 114.38 1.55 5 5 0 0113 5v2.373a.75.75 0 01-1.5 0V5A3.5 3.5 0 008 1.5zM8 16a2 2 0 01-1.985-1.75c-.017-.137.097-.25.235-.25h3.5c.138 0 .252.113.235.25A2 2 0 018 16z"/></svg>

<svg xmlns="http://www.w3.org/2000/svg" width="16" height="16" viewBox="0 0 16 16">
  <defs/>
  <path d="M4.182,4.31 C4.187,4.314 4.193,4.317 4.198,4.321 L14.302,11.637 C14.306,11.64 14.311,11.644 14.315,11.647 L15.69,12.643 C15.915,12.797 16.04,13.061 16.014,13.333 C15.988,13.605 15.817,13.841 15.567,13.95 C15.316,14.059 15.026,14.023 14.81,13.857 L13.626,13 L2.518,13 C1.958,13 1.444,12.692 1.18,12.198 C0.916,11.705 0.944,11.106 1.255,10.64 L2.958,8.086 C2.985,8.045 3,7.996 3,7.947 L3,5.305 L0.31,3.357 C0.085,3.203 -0.04,2.939 -0.014,2.667 C0.012,2.395 0.183,2.159 0.433,2.05 C0.684,1.941 0.974,1.977 1.19,2.143 Z M11.555,11.5 L4.5,6.391 L4.5,7.947 C4.5,8.293 4.398,8.63 4.206,8.917 L2.503,11.473 C2.501,11.476 2.5,11.479 2.5,11.483 C2.5,11.488 2.502,11.492 2.505,11.495 C2.507,11.497 2.509,11.498 2.511,11.499 L2.518,11.5 Z M8,1.5 C7.003,1.5 6.105,1.916 5.466,2.586 C5.18,2.886 4.705,2.897 4.405,2.611 C4.105,2.325 4.094,1.85 4.38,1.55 C5.79,0.07 7.96,-0.403 9.858,0.357 C11.756,1.117 13,2.955 13,5 L13,7.373 C13,7.787 12.664,8.123 12.25,8.123 C11.836,8.123 11.5,7.787 11.5,7.373 L11.5,5 C11.5,3.067 9.933,1.5 8,1.5 Z M8,16 C6.992,16 6.141,15.25 6.015,14.25 C5.998,14.113 6.112,14 6.25,14 L9.75,14 C9.888,14 10.002,14.113 9.985,14.25 C9.859,15.25 9.008,16 8,16 Z"/>
</svg>
